packages/match-logos/mono/svg/taskrabbit.svg

<svg fill="none" height="36" viewBox="0 0 200 36" width="200" xmlns="http://www.w3.org/2000/svg" xmlns:xlink="http://www.w3.org/1999/xlink"><clipPath id="a"><path d="m0 0h200v35.2423h-200z"/></clipPath><g clip-path="url(#a)"><path d="m41.4978 17.3568c-4.229-6.8722-5.1982-1.3216-9.6916-8.81054-3.5242-5.90308-9.2511-9.86784-11.63-8.193833 2.5551.792953 9.163 6.167403 11.1895 11.365673-1.7621-3.25995-12.4229-11.71809629-14.0969-10.39651-1.3216 1.05727 5.6387 7.57709 11.1894 10.39651-.1762.4405-.6168 1.3216-2.6432 1.3216-2.3788 0-5.4625-4.40533-11.9824-4.40533-3.7885 0-7.66516 1.58593-10.30833 4.58153-.61674-.4406-2.29075-.7049-3.171809.7929-.881057 1.3216.088105 2.9075.881059 3.2599-.440531 1.4097-.792954 2.9075-.792954 4.6696 0 8.5463 7.048454 13.2159 13.215834 13.304 2.467.0881 4.9339-.793 6.7842-1.8502 2.7312-1.4097 3.7004-3.2599 3.1718-4.4053-.5287-1.1454-3.348-.8811-6.0793 0 3.1718-2.7313 3.5242-7.489.7048-10.6608s-7.489-3.5242-10.66077-.7049c-1.4978 1.3216-2.46696 3.1719-2.55507 5.1983-.44053-4.4934 2.90749-8.5463 7.48904-8.9868 4.4933-.4405 8.5462 2.9075 8.9867 7.489.1762 2.0264-.4405 4.141-1.674 5.7269 1.3216-.5287 2.3789-1.4097 3.2599-2.467 4.141 4.5815 9.4273 4.6696 9.6036 2.9075.1762-2.0264-5.1102-.6168-5.1983-5.9031.4406.7049 1.2335.4405 1.3216.3524.3524-.1762.7049-.6167.5286-1.0572 2.2908 2.2907 4.4934 2.4669 7.6652 2.2907 4.5815-.3524 6.4318-2.5551 4.4934-5.815zm-3.9647.0881c-.6168 0-1.1454-.4405-1.2335-1.0572-.0881-.6168.2643-1.0573.8811-1.0573.6167 0 1.1453.4405 1.2334 1.0573.1762.5286-.2643 1.0572-.881 1.0572zm107.9299 10.9252h-2.996c-1.762 0-1.762-1.7622-1.762-1.7622h-.088c-.793 1.5859-2.82 2.2908-4.67 2.2908-5.11 0-8.106-3.9648-8.106-8.6344 0-5.2863 3.789-8.5462 8.106-8.5462 2.643 0 4.141 1.3216 4.67 2.2026h.088s0-1.7621 1.674-1.7621h3.084zm-8.723-3.9648c2.996 0 4.053-2.5551 4.053-4.141 0-1.9383-1.322-4.0528-4.053-4.0528s-3.965 2.2907-3.965 4.1409c-.088 1.4978 1.058 4.0529 3.965 4.0529zm14.273-17.44494h1.41v6.60794c1.762-1.8502 4.053-1.8502 4.67-1.8502 3.348 0 7.929 2.3788 7.929 8.4581 0 5.815-4.053 8.7225-8.106 8.7225-2.29 0-3.964-1.1454-4.581-2.2908h-.088v1.7622h-4.582v-18.0617c0-3.34804 3.348-3.34804 3.348-3.34804zm5.11 17.44494c2.467 0 4.053-2.0264 4.053-4.141 0-2.1145-1.586-4.0528-3.965-4.0528-2.555 0-3.964 2.0264-3.964 4.0528 0 2.2027 1.498 4.141 3.876 4.141zm13.481-17.44494h1.409v6.60794c1.762-1.8502 4.053-1.8502 4.67-1.8502 3.348 0 7.929 2.3788 7.929 8.4581 0 5.815-4.053 8.7225-8.105 8.7225-2.291 0-3.965-1.1454-4.582-2.2908h-.088v1.7622h-4.581v-18.0617c.088-3.34804 3.348-3.34804 3.348-3.34804zm5.198 17.44494c2.467 0 4.053-2.0264 4.053-4.141 0-2.1145-1.586-4.0528-3.965-4.0528-2.555 0-3.965 2.0264-3.965 4.0528 0 2.2027 1.498 4.141 3.877 4.141zm14.978 3.9648h-4.846v-12.6873c0-3.348 3.348-3.4361 3.348-3.4361h1.498zm-2.467-22.02648c1.41 0 2.555 1.14537 2.555 2.55506 0 1.40972-1.145 2.55502-2.555 2.55502s-2.555-1.1453-2.555-2.55502c.088-1.40969 1.145-2.55506 2.555-2.55506zm-61.586 17.18058c-1.234 0-2.027-.9691-2.115-1.0572l-.793-.9692-.352-.4405c4.053-.7049 5.286-4.3172 5.286-6.7842 0-2.2026-.881-4.49336-2.643-5.81495-1.41-1.05727-2.819-1.49779-6.608-1.49779h-6.784v21.40974h5.286v-6.4318l2.027 2.5551.793 1.0573c.264.2643 2.379 2.8194 5.903 2.8194h2.114v-4.8459zm-6.784-5.8149h-1.939v-5.9912h1.939c2.114 0 3.524.9691 3.524 2.9075 0 1.0572-.352 3.0837-3.524 3.0837zm80.528 5.8149v4.8459h-.616c-2.908 0-7.137-1.9384-7.137-7.2247v-10.837c0-3.34804 3.348-3.34804 3.348-3.34804h1.41v5.28634h3.172v3.7885h-3.172v5.1102c0 1.3216.528 1.7621 1.057 2.0264.617.3524 1.41.3524 1.498.3524zm-145.4622-11.718h-5.022v-1.4978c0-3.34804 3.348-3.34804 3.348-3.34804h11.7181v4.84584h-4.5815v16.5639h-2.2026c-3.3481 0-3.3481-3.3481-3.3481-3.3481zm24.7578 16.5639h-2.9956c-1.7622 0-1.7622-1.7622-1.7622-1.7622h-.0881c-.7929 1.5859-2.8193 2.2908-4.6696 2.2908-5.1101 0-8.1057-3.9648-8.1057-8.6344 0-5.2863 3.7886-8.5462 8.1057-8.5462 2.6432 0 4.141 1.3216 4.6696 2.2026h.0881s.0001-1.7621 1.6741-1.7621h3.0837zm-8.8106-3.9648c2.9956 0 4.0528-2.5551 4.0528-4.141 0-1.9383-1.3215-4.0528-4.0528-4.0528s-3.9648 2.2907-3.9648 4.1409c0 1.4978 1.1454 4.0529 3.9648 4.0529zm17.9736-7.5771c0-.3524-.0882-1.2335-1.4979-1.2335-1.0572 0-1.3215.6168-1.3215 1.0573 0 .881 1.1453 1.3216 2.4669 1.7621 2.7313.793 5.6388 1.5859 5.6388 5.022 0 3.348-2.9956 5.4626-6.5198 5.4626-2.467 0-6.0793-1.1454-6.5199-5.3745h4.7578c.1762 1.5859 1.5859 1.4978 1.8502 1.4978.7929 0 1.674-.4405 1.674-1.2335 0-1.2334-1.1454-1.4096-4.2291-2.555-2.1145-.7049-3.7885-2.0264-3.7885-4.2291 0-3.1718 2.9075-5.2863 6.2555-5.2863 2.1145 0 5.7268.7929 6.1674 5.022zm6.3436-9.86784h1.4978s3.348 0 3.348 3.34804v7.7533h.0881l4.4929-5.815h5.727l-6.079 7.0485c.088.0881.176.2643.264.3524.265.4405.793 1.2335 1.674 2.555 1.234 1.8503 4.053 1.9384 4.141 1.9384h1.234v4.2291h-1.234c-.176 0-5.11-.0882-7.577-3.8767-.881-1.3216-1.674-2.6432-2.5548-3.9648h-.0881v7.8415h-4.9339z" fill="#1f304c"/></g></svg>

<svg width="200" height="36" viewBox="0 0 200 36" fill="none" xmlns="http://www.w3.org/2000/svg">
<g clip-path="url(#clip0)">
<path d="M41.4978 17.3568C37.2688 10.4846 36.2996 16.0352 31.8062 8.54626C28.282 2.64318 22.5551 -1.32158 20.1762 0.352427C22.7313 1.14538 29.3392 6.51983 31.3657 11.7181C29.6036 8.45815 18.9428 3.71411e-06 17.2688 1.32159C15.9472 2.37886 22.9075 8.89868 28.4582 11.7181C28.282 12.1586 27.8414 13.0397 25.815 13.0397C23.4362 13.0397 20.3525 8.63437 13.8326 8.63437C10.0441 8.63437 6.16744 10.2203 3.52427 13.2159C2.90753 12.7753 1.23352 12.511 0.352461 14.0088C-0.528596 15.3304 0.440566 16.9163 1.23352 17.2687C0.792989 18.6784 0.440566 20.1762 0.440566 21.9383C0.440566 30.4846 7.48902 35.1542 13.6564 35.2423C16.1234 35.3304 18.5903 34.4493 20.4406 33.3921C23.1718 31.9824 24.141 30.1322 23.6124 28.9868C23.0837 27.8414 20.2644 28.1057 17.5331 28.9868C20.7049 26.2555 21.0573 21.4978 18.2379 18.326C15.4185 15.1542 10.7489 14.8018 7.57713 17.6211C6.07933 18.9427 5.11017 20.793 5.02206 22.8194C4.58153 18.326 7.92955 14.2731 12.5111 13.8326C17.0044 13.3921 21.0573 16.7401 21.4978 21.3216C21.674 23.348 21.0573 25.4626 19.8238 27.0485C21.1454 26.5198 22.2027 25.6388 23.0837 24.5815C27.2247 29.163 32.511 29.2511 32.6873 27.489C32.8635 25.4626 27.5771 26.8722 27.489 21.5859C27.9296 22.2908 28.7225 22.0264 28.8106 21.9383C29.163 21.7621 29.5155 21.3216 29.3392 20.8811C31.63 23.1718 33.8326 23.348 37.0044 23.1718C41.5859 22.8194 43.4362 20.6167 41.4978 17.3568ZM37.5331 17.4449C36.9163 17.4449 36.3877 17.0044 36.2996 16.3877C36.2115 15.7709 36.5639 15.3304 37.1807 15.3304C37.7974 15.3304 38.326 15.7709 38.4141 16.3877C38.5903 16.9163 38.1498 17.4449 37.5331 17.4449ZM145.463 28.3701H142.467C140.705 28.3701 140.705 26.6079 140.705 26.6079H140.617C139.824 28.1938 137.797 28.8987 135.947 28.8987C130.837 28.8987 127.841 24.9339 127.841 20.2643C127.841 14.978 131.63 11.7181 135.947 11.7181C138.59 11.7181 140.088 13.0397 140.617 13.9207H140.705C140.705 13.9207 140.705 12.1586 142.379 12.1586H145.463V28.3701ZM136.74 24.4053C139.736 24.4053 140.793 21.8502 140.793 20.2643C140.793 18.326 139.471 16.2115 136.74 16.2115C134.009 16.2115 132.775 18.5022 132.775 20.3524C132.687 21.8502 133.833 24.4053 136.74 24.4053ZM151.013 6.96036H152.423V13.5683C154.185 11.7181 156.476 11.7181 157.093 11.7181C160.441 11.7181 165.022 14.0969 165.022 20.1762C165.022 25.9912 160.969 28.8987 156.916 28.8987C154.626 28.8987 152.952 27.7533 152.335 26.6079H152.247V28.3701H147.665V10.3084C147.665 6.96036 151.013 6.96036 151.013 6.96036ZM156.123 24.4053C158.59 24.4053 160.176 22.3789 160.176 20.2643C160.176 18.1498 158.59 16.2115 156.211 16.2115C153.656 16.2115 152.247 18.2379 152.247 20.2643C152.247 22.467 153.745 24.4053 156.123 24.4053ZM169.604 6.96036H171.013V13.5683C172.775 11.7181 175.066 11.7181 175.683 11.7181C179.031 11.7181 183.612 14.0969 183.612 20.1762C183.612 25.9912 179.559 28.8987 175.507 28.8987C173.216 28.8987 171.542 27.7533 170.925 26.6079H170.837V28.3701H166.256V10.3084C166.344 6.96036 169.604 6.96036 169.604 6.96036ZM174.802 24.4053C177.269 24.4053 178.855 22.3789 178.855 20.2643C178.855 18.1498 177.269 16.2115 174.89 16.2115C172.335 16.2115 170.925 18.2379 170.925 20.2643C170.925 22.467 172.423 24.4053 174.802 24.4053ZM189.78 28.3701H184.934V15.6828C184.934 12.3348 188.282 12.2467 188.282 12.2467H189.78V28.3701ZM187.313 6.34362C188.723 6.34362 189.868 7.48899 189.868 8.89868C189.868 10.3084 188.723 11.4537 187.313 11.4537C185.903 11.4537 184.758 10.3084 184.758 8.89868C184.846 7.48899 185.903 6.34362 187.313 6.34362ZM125.727 23.5242C124.493 23.5242 123.7 22.5551 123.612 22.467L122.819 21.4978L122.467 21.0573C126.52 20.3524 127.753 16.7401 127.753 14.2731C127.753 12.0705 126.872 9.77974 125.11 8.45815C123.7 7.40088 122.291 6.96036 118.502 6.96036H111.718V28.3701H117.004V21.9383L119.031 24.4934L119.824 25.5507C120.088 25.815 122.203 28.3701 125.727 28.3701H127.841V23.5242H125.727ZM118.943 17.7093H117.004V11.7181H118.943C121.057 11.7181 122.467 12.6872 122.467 14.6256C122.467 15.6828 122.115 17.7093 118.943 17.7093ZM199.471 23.5242V28.3701H198.855C195.947 28.3701 191.718 26.4317 191.718 21.1454V10.3084C191.718 6.96036 195.066 6.96036 195.066 6.96036H196.476V12.2467H199.648V16.0352H196.476V21.1454C196.476 22.467 197.004 22.9075 197.533 23.1718C198.15 23.5242 198.943 23.5242 199.031 23.5242H199.471ZM54.0088 11.8062H48.9868V10.3084C48.9868 6.96036 52.3348 6.96036 52.3348 6.96036H64.0529V11.8062H59.4714V28.3701H57.2688C53.9207 28.3701 53.9207 25.022 53.9207 25.022L54.0088 11.8062ZM78.7666 28.3701H75.771C74.0088 28.3701 74.0088 26.6079 74.0088 26.6079H73.9207C73.1278 28.1938 71.1014 28.8987 69.2511 28.8987C64.141 28.8987 61.1454 24.9339 61.1454 20.2643C61.1454 14.978 64.934 11.7181 69.2511 11.7181C71.8943 11.7181 73.3921 13.0397 73.9207 13.9207H74.0088C74.0088 13.9207 74.0089 12.1586 75.6829 12.1586H78.7666V28.3701ZM69.956 24.4053C72.9516 24.4053 74.0088 21.8502 74.0088 20.2643C74.0088 18.326 72.6873 16.2115 69.956 16.2115C67.2247 16.2115 65.9912 18.5022 65.9912 20.3524C65.9912 21.8502 67.1366 24.4053 69.956 24.4053ZM87.9296 16.8282C87.9296 16.4758 87.8414 15.5947 86.4317 15.5947C85.3745 15.5947 85.1102 16.2115 85.1102 16.652C85.1102 17.533 86.2555 17.9736 87.5771 18.4141C90.3084 19.2071 93.2159 20 93.2159 23.4361C93.2159 26.7841 90.2203 28.8987 86.6961 28.8987C84.2291 28.8987 80.6168 27.7533 80.1762 23.5242H84.934C85.1102 25.1101 86.5199 25.022 86.7842 25.022C87.5771 25.022 88.4582 24.5815 88.4582 23.7885C88.4582 22.5551 87.3128 22.3789 84.2291 21.2335C82.1146 20.5286 80.4406 19.2071 80.4406 17.0044C80.4406 13.8326 83.3481 11.7181 86.6961 11.7181C88.8106 11.7181 92.4229 12.511 92.8635 16.7401L87.9296 16.8282ZM94.2732 6.96036H95.771C95.771 6.96036 99.119 6.96036 99.119 10.3084V18.0617H99.2071L103.7 12.2467H109.427L103.348 19.2952C103.436 19.3833 103.524 19.5595 103.612 19.6476C103.877 20.0881 104.405 20.8811 105.286 22.2026C106.52 24.0529 109.339 24.141 109.427 24.141H110.661V28.3701H109.427C109.251 28.3701 104.317 28.2819 101.85 24.4934C100.969 23.1718 100.176 21.8502 99.2952 20.5286H99.2071V28.3701H94.2732V6.96036Z" fill="#1F304C"/>
</g>
<defs>
<clipPath id="clip0">
<rect width="200" height="35.2423" fill="white"/>
</clipPath>
</defs>
</svg>
